X: 1
T: Orkney
M: 3/4
L: 1/8
R: waltz
K: Emin
B,4 EF | G4- GF/<E/ | F4 Ad | F4- FD/>D/ | E4 GA | B4- BA | d3 A2 G | F4- FD | 
B,4 EF | G4- GF/<E/ | F4 Ad | F4- FD | E3 B2 A | A3 F2 D | E6 | E6 ||
d3 A2 G | F4- FD | d3 e fd | A F3- F2 | g3 f eg | B6 | e3 f g>e | B6 | 
B,4 EF | G4- GF/<E/ | F4 Ad | F4- FD | E3 B2 A | A3 F2 D | E6 | E6 ||
